rospo-dark/small/status/call-missed-symbolic.svg

<?xml version="1.0" encoding="UTF-8" standalone="no"?>
<svg
   xmlns:dc="http://purl.org/dc/elements/1.1/"
   xmlns:cc="http://creativecommons.org/ns#"
   xmlns:rdf="http://www.w3.org/1999/02/22-rdf-syntax-ns#"
   xmlns:svg="http://www.w3.org/2000/svg"
   xmlns="http://www.w3.org/2000/svg"
   xmlns:sodipodi="http://sodipodi.sourceforge.net/DTD/sodipodi-0.dtd"
   xmlns:inkscape="http://www.inkscape.org/namespaces/inkscape"
   width="22"
   height="22"
   version="1.1"
   id="svg6"
   sodipodi:docname="call-missed-symbolic.svg"
   inkscape:version="0.92.1 r">
  <metadata
     id="metadata12">
    <rdf:RDF>
      <cc:Work
         rdf:about="">
        <dc:format>image/svg+xml</dc:format>
        <dc:type
           rdf:resource="http://purl.org/dc/dcmitype/StillImage" />
      </cc:Work>
    </rdf:RDF>
  </metadata>
  <defs
     id="defs10" />
  <sodipodi:namedview
     pagecolor="#ffffff"
     bordercolor="#666666"
     borderopacity="1"
     objecttolerance="10"
     gridtolerance="10"
     guidetolerance="10"
     inkscape:pageopacity="0"
     inkscape:pageshadow="2"
     inkscape:window-width="769"
     inkscape:window-height="480"
     id="namedview8"
     showgrid="false"
     inkscape:zoom="10.727273"
     inkscape:cx="11"
     inkscape:cy="11"
     inkscape:window-x="0"
     inkscape:window-y="0"
     inkscape:window-maximized="0"
     inkscape:current-layer="svg6" />
  <g
     id="g824"
     transform="translate(2.999875,2.79375)">
    <path
       id="path2"
       d="M 8,1 9.79,2.79 8,4.59 5,1.59 3.59,3 7.29,6.71 c 0.3912,0.3943 1.0288,0.3943 1.42,0 L 11.211,4.21 13,6 V 1 Z"
       style="opacity:0.3;fill:#d3dae3"
       inkscape:connector-curvature="0" />
    <path
       id="path4"
       d="M 8.14,8.01 C 5.47,7.97 2.89,9.02 0.99,10.91 l -0.7,0.71 c -0.39,0.38 -0.39,1.01 0,1.4 l 2.1,2.1 c 0.39,0.39 1.02,0.39 1.41,0 L 5,13.92 v -2.26 0 l 0.2,-0.08 c 1.78,-0.79 3.82,-0.79 5.601,0.01 l 0.2,0.07 v 0 2.26 l 0.5,0.5 0.71,0.7 c 0.379,0.39 1.01,0.39 1.399,0 l 2.101,-2.1 c 0.389,-0.39 0.389,-1.02 0,-1.4 L 15.01,10.91 C 13.18,9.09 10.721,8.05 8.14,8.01 Z"
       style="fill:#d3dae3"
       inkscape:connector-curvature="0" />
  </g>
</svg>

<svg xmlns="http://www.w3.org/2000/svg" width="16" height="16" version="1.1">
 <path style="opacity:0.3;fill:#5c616c" d="M 8,1 9.79,2.79 8,4.59 5,1.59 3.59,3 7.29,6.71 C 7.6812,7.1043 8.3188,7.1043 8.71,6.71 L 11.211,4.21 13,6 V 1 Z"/>
 <path style="fill:#5c616c" d="M 8.14,8.01 C 5.47,7.97 2.89,9.02 0.99,10.91 L 0.29,11.62 C -0.1,12 -0.1,12.63 0.29,13.02 L 2.39,15.12 C 2.78,15.51 3.41,15.51 3.8,15.12 L 5,13.92 V 11.66 11.66 L 5.2,11.58 C 6.98,10.79 9.02,10.79 10.801,11.59 L 11.001,11.66 V 11.66 13.92 L 11.501,14.42 12.211,15.12 C 12.59,15.51 13.221,15.51 13.61,15.12 L 15.711,13.02 C 16.1,12.63 16.1,12 15.711,11.62 L 15.01,10.91 C 13.18,9.09 10.721,8.05 8.14,8.01 Z"/>
</svg>
